svgs/satstat.svg

<svg xmlns="http://www.w3.org/2000/svg" viewBox="0 0 48 48"><path d="M17.19 6.43h.17a.909.909 0 0 1 .53.32L34.61 28a.913.913 0 0 1-.34 1.38A17.766 17.766 0 0 1 28 30.66a14.008 14.008 0 0 1-11.65-5.48 14.007 14.007 0 0 1-2.62-12.61 17.917 17.917 0 0 1 2.73-5.79.908.908 0 0 1 .72-.35Zm16.17 2a2.7 2.7 0 1 1 .398 5.384 2.7 2.7 0 0 1-.398-5.384ZM18.93 32.1h8.34c.103-.015.207-.015.31 0a1.665 1.665 0 0 1 1.24 1l2.28 5.61a1.69 1.69 0 0 1-1.56 2.31H16.66a1.69 1.69 0 0 1-1.016-.347 1.686 1.686 0 0 1-.534-1.963l2.27-5.61a1.657 1.657 0 0 1 1.55-1Zm.19-26.17 10 3.57m4.92 6.28 1.17 10.51" fill="none" stroke="#000" stroke-width="2" stroke-linecap="round" stroke-linejoin="round"/></svg>

<svg
    xmlns="http://www.w3.org/2000/svg"
    viewBox="0 0 48 48"
    id="vector">
    <path
        id="path"
        d="M 17.19 6.43 L 17.36 6.43 C 17.569 6.471 17.756 6.585 17.89 6.75 L 34.61 28 C 34.721 28.145 34.786 28.32 34.797 28.502 C 34.807 28.684 34.762 28.866 34.668 29.022 C 34.575 29.179 34.436 29.303 34.27 29.38 C 32.275 30.183 30.15 30.616 28 30.66 C 25.761 30.745 23.535 30.292 21.508 29.339 C 19.481 28.385 17.712 26.959 16.35 25.18 C 14.936 23.441 13.96 21.388 13.504 19.194 C 13.048 17 13.126 14.728 13.73 12.57 C 14.285 10.492 15.21 8.53 16.46 6.78 C 16.545 6.671 16.655 6.582 16.779 6.522 C 16.904 6.461 17.041 6.43 17.18 6.43 Z M 33.36 8.43 C 34.005 8.382 34.646 8.568 35.166 8.953 C 35.686 9.338 36.05 9.898 36.192 10.529 C 36.335 11.16 36.246 11.821 35.941 12.392 C 35.637 12.963 35.138 13.406 34.535 13.64 C 33.932 13.874 33.264 13.883 32.655 13.667 C 32.045 13.45 31.533 13.022 31.213 12.46 C 30.893 11.898 30.785 11.239 30.909 10.604 C 31.033 9.969 31.381 9.4 31.89 9 C 32.314 8.67 32.825 8.472 33.36 8.43 Z M 18.93 32.1 L 27.27 32.1 C 27.373 32.085 27.477 32.085 27.58 32.1 C 27.854 32.15 28.11 32.268 28.327 32.443 C 28.543 32.617 28.713 32.843 28.82 33.1 L 31.1 38.71 C 31.235 39.052 31.255 39.428 31.156 39.782 C 31.058 40.136 30.847 40.448 30.555 40.672 C 30.264 40.895 29.907 41.017 29.54 41.02 L 16.66 41.02 C 16.293 41.018 15.936 40.896 15.644 40.673 C 15.353 40.449 15.143 40.136 15.046 39.781 C 14.95 39.427 14.972 39.051 15.11 38.71 L 17.38 33.1 C 17.51 32.799 17.727 32.543 18.003 32.365 C 18.279 32.187 18.602 32.095 18.93 32.1 Z M 19.12 5.93 L 29.12 9.5 M 34.04 15.78 L 35.21 26.29"
        fill="none"
        stroke="#000000"
        stroke-width="2"
        stroke-linecap="round"
        stroke-linejoin="round"/>
</svg>
